X:1
T:We’ll Girdle the Globe
T:Ida Mae Campbell Dake
T:We’ll Girdle the Globe
T:Public Domain
T:Public Domain
C:Ida Mae Campbell Dake
Z:Public Domain
%%score 1 ( 2 3 )
L:1/8
M:4/4
K:C
V:1 treble 
V:2 bass 
V:3 bass 
V:1
 [CE][CE]>[DF] | [EG]4- [EG]>[Ec] [GB]>[FA] | [EG]4- [EG]>[Ec] [GB]>[FA] | %3
w: 1.~Be- hold the|hands * stretched out for|aid, * Dark- ened by|
w: 2.~In heath- en|lands * they watch and|wait, * And sigh for|
w: 3.~Oh, flash the|tid- * ings! shout the|sound, * In dark- est|
w: 4.~The watch fires|kin- * dle far and|near, * In ev- ’ry|
 [FB]4- [FB]>[FA] [EG]>[DF] | [CE]4- [CE]>[CE] [CE]>[DF] | [EG]4- [EG]>[Ec] [Fd]>[Fc] | %6
w: sin * and sore dis-|mayed; * Oh, will you|to * their res- cue|
w: help * which comes so|late, * And grope in|sin * and na- ture’s|
w: lands * the world a-|round, * Till all the|earth * from pole to|
w: land * let them ap-|pear, * Till burn- ing|lines * of Gos- pel|
 [FA]4- [FA]>[Ac] [GB]>[FA] | [EG]3 [EG] [FA]2 [FB]2 | [Ec]6 z ||"^Refrain" [EG] | %10
w: go, * Lost wand- ’rers|down to end- less|woe?||
w: night, * For- ev- er|vain- ly seek- ing|light.||
w: pole, * Shall full sal-|va- tion e- choes|roll.|We’ll|
w: fire, * Shall gird the|world and mount up|higher.||
 (3[EG]3/2[FA]/[EG] (3[CE]3/2[DF]/[EG] [Ec]2 [EG]>[EG] | %11
w: |
w: |
w: gir- dle the globe with sal- va- tion, With|
w: |
 (3[EG]3/2[FA]/[EG] (3[DF]3/2[EG]/[DF] [CE]3 [EG] | (3[Ec][Ec][Ec] (3[Ec][Ec][Ec] [Fc]2 [FA]>[Fc] | %13
w: ||
w: ||
w: ho- li- ness un- to the Lord; And|light shall il- lum- ine each na- tion, The|
w: ||
 (3[DB][DB][DB] (3[DB][Ec][Fd] [Ec]3 |] %14
w: |
w: |
w: light from the lamp of His Word.|
w: |
V:2
 z z2 | z3/2 [C,C]/ [C,C]>[C,C] [B,,C]2 z2 | z3/2 [C,C]/ [C,C]>[C,C] [C,C]2 z2 | %3
w: |1.~Be- hold the hands|stretched out for aid,|
 z3/2 G,/ G,>G, G,2 z2 | z3/2 [C,G,]/ [C,G,]>[C,G,] [C,G,]2 z2 | %5
w: Dark- ened by sin|Oh will you to|
 z3/2 [C,C]/ [C,C]>[C,C] [C,C]2 z2 | z3/2 [F,C]/ [F,C]>[F,C] [F,C]>[F,C] [F,C]>[F,C] | %7
w: their res- cue go,||
 [G,C]3 [G,C] [G,B,]2 [G,D]2 | [C,C]6 z || [C,C] | %10
w: |||
 (3[C,C]3/2[C,C]/[C,C] (3[C,G,]3/2[C,G,]/[C,G,] [C,G,]2 [C,C]>[C,C] | %11
w: |
 (3[C,C]3/2[C,C]/[C,C] (3[G,B,][G,B,][G,B,] [C,G,]3 [C,C] | %12
w: |
 (3[C,G,][C,G,][C,G,] (3[C,G,][C,G,][C,_B,] [F,A,]2 [F,C]>[F,A,] | (3G,G,G, (3G,G,G, [C,G,]3 |] %14
w: ||
V:3
 x3 | x8 | x8 | x3/2 G,/ G,>G, G,2 x2 | x8 | x8 | x8 | x8 | x7 || x | x8 | x8 | x8 | %13
w: |||and sore dis- mayed||||||||||
 G,G,G,G, G,G, x |] %14
w: |

